X:68
T:Paul Cranford's Map Of Cape Breton
C:Paul Cranford
M:6/8
L:1/8
R:jig
K:Ador
cAe cAe | cAe dcB | cAe cAe | gag dcB |
cAe cAe | cAe dcB | A^c/d/e aba | dBG BB/c/d ::
AaA gAf | gag dcB | AaA gAf | gdB GG/A/B |
AaA gAf | AeA dd/e/f | gba gfg | dBG Bcd :|
